X:186
T: Drei Lilien, drei Lilien (3-27), S. 70f
N: K1161
O: Luxemburg
S: KINTZELE, Guillaume: An der Ucht, Bd. 3 Luxemburg 1928]
N: in der Quelle mit einer 2. Stimme versehen
R: Liebe, Tod]
M: 4/4
L: 1/16
K: C
C2E2 | G6A2G4F4 | E6D2C4
G4 | A4G4F4E4 | D8z4
C2E2 | G4G4G4c4 | c8A4
d4 | c8B8 | c8z4
G3G | F3EF3EF3EF3E | D8z4
A3A | G3^FG3FG3FG3=F | E8z4
C2E2 | G4G4G4c4 | c8A4
d4 | e8d8 | c8z4

@@@ Tune index: 8240
